X:913
T:A Mhairi Bhoidheach 
C:Joe Buchanan's Scottish Tome - Page 524.3
I:524 3
Z:Carl Allison
R:Waltz
L:1/4
M:3/4
K:F
A | A2 G | G3 | A2 F | E2 C | D3 | D2 D | F2 G | A3 |
A2 c | d2 G | G3 | F2 F | c2 A | c3 | c2 c | d2 e |
d3 | A | c2 D | G2 D | F3 | G2 A | G> F C | D3- | D2 |]

